icons/sparkles-fill-24.svg

<svg width="24" height="24" viewBox="0 0 24 24" xmlns="http://www.w3.org/2000/svg">
<path d="M14.4002 3.41912C14.6048 2.86029 15.3952 2.86029 15.5998 3.41912L16.2103 5.08689C17.1796 7.7343 19.2657 9.82041 21.9131 10.7897L23.5809 11.4002C24.1397 11.6048 24.1397 12.3952 23.5809 12.5998L21.9131 13.2103C19.2657 14.1796 17.1796 16.2657 16.2103 18.9131L15.5998 20.5809C15.3952 21.1397 14.6048 21.1397 14.4002 20.5809L13.7897 18.9131C12.8204 16.2657 10.7343 14.1796 8.08689 13.2103L6.41912 12.5998C5.86029 12.3952 5.86029 11.6048 6.41912 11.4002L8.08689 10.7897C10.7343 9.82041 12.8204 7.7343 13.7897 5.08689L14.4002 3.41912Z"/>
<path d="M8.0001 16.6746C8.08534 16.4418 8.41466 16.4418 8.4999 16.6746L8.75431 17.3695C9.15816 18.4726 10.0274 19.3418 11.1305 19.7457L11.8254 20.0001C12.0582 20.0853 12.0582 20.4147 11.8254 20.4999L11.1305 20.7543C10.0274 21.1582 9.15816 22.0274 8.75431 23.1305L8.4999 23.8254C8.41466 24.0582 8.08534 24.0582 8.0001 23.8254L7.74569 23.1305C7.34184 22.0274 6.47262 21.1582 5.36954 20.7543L4.67463 20.4999C4.44179 20.4147 4.44179 20.0853 4.67463 20.0001L5.36954 19.7457C6.47263 19.3418 7.34184 18.4726 7.74569 17.3695L8.0001 16.6746Z" />
<path d="M4.20012 0.209558C4.30241 -0.0698527 4.69759 -0.0698525 4.79988 0.209558L5.10517 1.04344C5.58979 2.36715 6.63285 3.41021 7.95656 3.89483L8.79044 4.20012C9.06985 4.30241 9.06985 4.69759 8.79044 4.79988L7.95656 5.10517C6.63285 5.58979 5.58979 6.63285 5.10517 7.95656L4.79988 8.79044C4.69759 9.06985 4.30241 9.06985 4.20012 8.79044L3.89483 7.95656C3.41021 6.63285 2.36715 5.58979 1.04344 5.10517L0.209558 4.79988C-0.0698527 4.69759 -0.0698525 4.30241 0.209558 4.20012L1.04344 3.89483C2.36715 3.41021 3.41021 2.36715 3.89483 1.04344L4.20012 0.209558Z" />
</svg>

<svg xmlns="http://www.w3.org/2000/svg" width="24" height="24" viewBox="0 0 24 24"><path d="M14.4 3.419a.639.639 0 0 1 1.2 0l.61 1.668a9.587 9.587 0 0 0 5.703 5.703l1.668.61a.639.639 0 0 1 0 1.2l-1.668.61a9.587 9.587 0 0 0-5.703 5.703l-.61 1.668a.639.639 0 0 1-1.2 0l-.61-1.668a9.587 9.587 0 0 0-5.703-5.703l-1.668-.61a.639.639 0 0 1 0-1.2l1.668-.61a9.587 9.587 0 0 0 5.703-5.703l.61-1.668ZM8 16.675a.266.266 0 0 1 .5 0l.254.694a3.992 3.992 0 0 0 2.376 2.377l.695.254a.266.266 0 0 1 0 .5l-.695.254a3.992 3.992 0 0 0-2.376 2.377l-.254.694a.266.266 0 0 1-.5 0l-.254-.694a3.992 3.992 0 0 0-2.376-2.377l-.695-.254a.266.266 0 0 1 0-.5l.695-.254a3.992 3.992 0 0 0 2.376-2.377L8 16.675ZM4.2.21a.32.32 0 0 1 .6 0l.305.833a4.793 4.793 0 0 0 2.852 2.852l.833.305a.32.32 0 0 1 0 .6l-.833.305a4.793 4.793 0 0 0-2.852 2.852L4.8 8.79a.32.32 0 0 1-.6 0l-.305-.833a4.793 4.793 0 0 0-2.852-2.852L.21 4.8a.32.32 0 0 1 0-.6l.833-.305a4.793 4.793 0 0 0 2.852-2.852L4.2.21Z"/></svg>
